img/svg/prom.svg

<?xml version="1.0" encoding="UTF-8"?>
<svg width="80px" height="80px" viewBox="0 0 80 80" version="1.1" xmlns="http://www.w3.org/2000/svg" xmlns:xlink="http://www.w3.org/1999/xlink">
    <!-- Generator: Sketch 52.6 (67491) - http://www.bohemiancoding.com/sketch -->
    <title>noun_Party_2033851</title>
    <desc>Created with Sketch.</desc>
    <g id="Quentia-Index-1.5" stroke="none" stroke-width="1" fill="none" fill-rule="evenodd">
        <g id="index-menu-clicked" transform="translate(-1024.000000, -1871.000000)" fill="#000000" fill-rule="nonzero">
            <g id="Group-18" transform="translate(335.000000, 1871.000000)">
                <g id="Group-17" transform="translate(689.000000, 0.000000)">
                    <g id="noun_Party_2033851">
                        <path d="M39.0126953,45.449707 L37.5913086,48.0444336 C36.2646484,50.4648438 34.2817383,52.4448242 31.8564453,53.769043 L29.2573242,55.1879883 C28.9360351,55.3632813 28.7363281,55.7001953 28.7363281,56.065918 C28.7363281,56.4316407 28.9360351,56.7685547 29.2573242,56.9438477 L31.855957,58.3623047 C34.2817382,59.6870117 36.2646484,61.6669922 37.5913086,64.0878906 L39.0126953,66.6821289 C39.1879883,67.0024414 39.5244141,67.2016601 39.8896484,67.2016601 C40.2548827,67.2016601 40.5913086,67.0024413 40.7666015,66.6821289 L42.1879882,64.0878906 C43.5141601,61.6669922 45.4970702,59.6870117 47.9223632,58.3627929 L50.5214843,56.9438476 C50.8427734,56.7685546 51.0424804,56.4316406 51.0424804,56.0659179 C51.0424804,55.7001952 50.8427734,55.3632812 50.5214843,55.1879882 L47.9228515,53.7695312 C45.4970703,52.4448242 43.5141601,50.4648437 42.1879882,48.0444335 L40.7666015,45.4497069 C40.4160156,44.809082 39.3632812,44.809082 39.0126953,45.449707 Z M39.8896484,48.0117188 L40.434082,49.0053711 C41.9443359,51.7617188 44.2021484,54.0161133 46.9643554,55.5249023 L47.9555663,56.0659179 L46.9638671,56.6074218 C44.2021483,58.1157226 41.9438476,60.3701171 40.4340819,63.126953 L39.8896483,64.1206053 L39.3452147,63.126953 C37.8349608,60.3701171 35.57666,58.1152342 32.814453,56.6069335 L31.8232421,56.0659179 L32.8149413,55.524414 C35.5761718,54.0166015 37.8344725,51.762207 39.3452147,49.005371 L39.8896484,48.0117188 Z" id="Shape"></path>
                        <path d="M27.0439453,63.7133789 C26.6923828,63.0708008 25.6386719,63.0708008 25.2880859,63.7133789 L24.2539062,65.6083984 C23.3134765,67.3315429 21.9077148,68.7407226 20.1884765,69.6826172 L18.2973632,70.7192383 C17.9770507,70.8950195 17.777832,71.2309571 17.777832,71.5961914 C17.777832,71.9614257 17.9770508,72.2973633 18.2973632,72.4731445 L20.1884765,73.5097656 C21.9077148,74.4516601 23.3134765,75.8608398 24.2539062,77.5839844 L25.2880859,79.4790039 C25.4633789,79.800293 25.800293,80 26.1660156,80 C26.5317382,80 26.8686523,79.800293 27.0439453,79.4790039 L28.0786133,77.5839844 C29.019043,75.8608399 30.4248047,74.4516602 32.1435547,73.5097656 L34.0351563,72.4731445 C34.3554688,72.2978515 34.5546875,71.9614257 34.5546875,71.5961914 C34.5546875,71.2309571 34.3554687,70.8945312 34.0351563,70.7192383 L32.1435547,69.6826172 C30.4248047,68.7407227 29.019043,67.331543 28.0786133,65.6083984 L27.0439453,63.7133789 Z M31.1826172,71.4365234 L31.4736328,71.5961914 L31.1826172,71.7558594 C29.1274414,72.8823242 27.4472656,74.5664063 26.3227539,76.6259766 L26.1660156,76.913086 L26.0097656,76.6259766 C24.8852539,74.565918 23.2045898,72.881836 21.149414,71.7558594 L20.8583984,71.5961914 L21.149414,71.4365234 C23.2045898,70.3105468 24.8852538,68.6264648 26.0097656,66.5664062 L26.1660156,66.2792968 L26.3227539,66.5664062 C27.4472656,68.6259766 29.1274414,70.3100586 31.1826172,71.4365234 Z" id="Shape"></path>
                        <path d="M61.4819336,70.7192383 L59.5908203,69.6826172 C57.871582,68.7407227 56.4658203,67.331543 55.5253906,65.6083984 L54.4907226,63.7133789 C54.1391601,63.0708008 53.0854492,63.0708008 52.7348632,63.7133789 L51.7006835,65.6083984 C50.7602538,67.3315429 49.3544921,68.7407226 47.6352538,69.6826172 L45.7441405,70.7192383 C45.423828,70.8950195 45.2246093,71.2309571 45.2246093,71.5961914 C45.2246093,71.9614257 45.4238281,72.2973633 45.7441405,72.4731445 L47.6352538,73.5097656 C49.3544921,74.4516601 50.7602538,75.8608398 51.7006835,77.5839844 L52.7348632,79.4790039 C52.9101562,79.800293 53.2470703,80 53.612793,80 C53.9785157,80 54.3154297,79.800293 54.4907227,79.4790039 L55.5253907,77.5839844 C56.4658204,75.8608399 57.8715821,74.4516602 59.5908204,73.5097656 L61.4819337,72.4731445 C61.8022462,72.2973633 62.0014649,71.9614257 62.0014649,71.5961914 C62.0014649,71.2309571 61.8022461,70.8950195 61.4819336,70.7192383 Z M58.6298828,71.7558594 C56.574707,72.881836 54.894043,74.565918 53.7695312,76.6259766 L53.6127929,76.913086 L53.4565429,76.6259766 C52.3320312,74.565918 50.6513671,72.881836 48.5961913,71.7558594 L48.3051757,71.5961914 L48.5961913,71.4365234 C50.6513671,70.3105468 52.3320311,68.6264648 53.4565429,66.5664062 L53.6127929,66.2792968 L53.7695312,66.5664062 C54.8940429,68.6264648 56.574707,70.3105468 58.6298828,71.4365234 L58.9208984,71.5961914 L58.6298828,71.7558594 Z" id="Shape"></path>
                        <path d="M64.4295654,52.50177 L64.7866211,52.3754883 C66.2250977,51.8671875 67.3774414,50.7529297 68.0288086,49.2436524 L70.8955078,42.7226563 C71.7099609,40.8378907 71.6499023,38.506836 70.7338867,36.4848633 L58.203125,9.0087891 C57.9887695,8.5371094 57.4492188,8.3090821 56.9599609,8.4809571 L41.3754882,13.9902344 C40.8920898,14.1611328 40.6166991,14.6699219 40.7368163,15.1684571 L47.8486327,44.5629883 C48.3764647,46.7216797 49.767578,48.5854492 51.5747069,49.5522461 L57.8203124,52.8417969 C58.7021483,53.3134766 59.6367186,53.5527344 60.5581054,53.5527344 C61.1503906,53.5527344 61.7373046,53.4536133 62.3012695,53.2543946 L62.3017578,53.2543946 L62.5437012,53.1688233 L70.3533936,75.7800904 L63.9121094,78.057129 C63.3916016,78.241211 63.1186524,78.8125001 63.3027344,79.3334962 C63.4477539,79.7436524 63.8334961,80.0004884 64.2456055,80.0004884 C64.3559571,80.0004884 64.46875,79.9819337 64.5791016,79.9428712 L79.3334961,74.7270509 C79.8540039,74.5429689 80.1269531,73.9716798 79.9428711,73.4506837 C79.7592773,72.9311525 79.1894531,72.6572267 78.6665039,72.8413087 L72.2393799,75.1133424 L64.4295654,52.50177 Z M42.8930664,15.5751953 L56.7636719,10.671875 L59.0481568,15.6811523 L44.1343995,20.7058105 L42.8930664,15.5751953 Z M61.6347656,51.3686523 C60.7294922,51.6879882 59.7109375,51.5844726 58.7578125,51.0751953 L52.512207,47.7856445 C51.2036132,47.0859375 50.1865234,45.703125 49.7919922,44.0898437 L44.6065674,22.6574096 L59.8825073,17.5107421 L68.9130859,37.3125 C69.5996093,38.8276367 69.6542968,40.5537109 69.0620117,41.9238281 L66.1953125,48.4448242 C65.7641602,49.4428711 65.0273437,50.1694336 64.1201172,50.4897461 L61.6347656,51.3686523 Z" id="Shape"></path>
                        <path d="M57.5214844,26.7841797 L57.5214844,26.7836914 C57.1323242,25.6577148 56.3310547,24.7543945 55.2646485,24.2407226 C54.2080079,23.730957 53.0195313,23.6655273 51.9155274,24.0566406 C49.6303712,24.8642578 48.4199219,27.3974609 49.2167969,29.7041015 C49.6054688,30.8300781 50.4067383,31.7333984 51.4726563,32.2475585 C52.0737305,32.5371093 52.7182618,32.6831054 53.3657227,32.6831054 C53.8554688,32.6831054 54.347168,32.5996093 54.8232422,32.4316406 C57.1069336,31.6235352 58.3173828,29.090332 57.5214844,26.7841797 Z M54.1567383,30.5458984 C53.5576172,30.7563476 52.913086,30.7216796 52.3413086,30.4458007 C51.7592774,30.165039 51.3208008,29.6699218 51.1074219,29.0512695 C50.6679688,27.7797851 51.3291016,26.3847656 52.5820313,25.9423828 C52.8393555,25.8515625 53.1054688,25.8061523 53.3706055,25.8061523 C53.7211914,25.8061523 54.0703125,25.8852539 54.3959961,26.0419921 C54.9785156,26.3232421 55.4169922,26.8183593 55.6308594,27.4365233 C56.0698242,28.7084961 55.4082031,30.1030273 54.1567383,30.5458984 Z" id="Shape"></path>
                        <path d="M63.9111328,38.7871094 C63.4985351,37.5932617 62.6484375,36.6352539 61.5175781,36.0898438 C60.3979492,35.5507813 59.1362304,35.4809571 57.9658203,35.8945313 C55.5429687,36.7514649 54.2587891,39.4384766 55.1040039,41.885254 C55.5166016,43.0791017 56.3666992,44.0371095 57.4975586,44.5825196 C58.1347656,44.8896485 58.8178711,45.0444337 59.5043945,45.0444337 C60.0239257,45.0444337 60.5449218,44.9560548 61.0493164,44.7778321 C63.4716797,43.9208985 64.7553711,41.2338868 63.9111328,38.7875977 L63.9111328,38.7871094 Z M60.3828125,42.8920898 C59.7172852,43.1269531 59.0009766,43.0874023 58.3662109,42.7807617 C57.71875,42.46875 57.2319336,41.9189453 56.9946289,41.2319336 C56.5068359,39.8203125 57.2416992,38.2719727 58.6323242,37.7802734 C58.918457,37.6791992 59.2143554,37.6289062 59.508789,37.6289062 C59.8989257,37.6289062 60.2871093,37.7167968 60.6489257,37.8916015 C61.2963866,38.2036132 61.783203,38.7534179 62.0205077,39.4399413 C62.5078125,40.8520508 61.7729492,42.4003906 60.3828125,42.8920898 Z" id="Shape"></path>
                        <path d="M0.6665039,74.7270508 L15.4208984,79.9428711 C15.53125,79.9819336 15.6435546,80.0004883 15.7543945,80.0004883 C16.1665039,80.0004883 16.5522461,79.7436524 16.6972656,79.3334961 C16.8813476,78.8125 16.6083984,78.2412109 16.0878906,78.0571289 L9.6466064,75.7800903 L17.4562988,53.1688232 L17.6982422,53.2543945 L17.6987305,53.2543945 C18.2631836,53.4541015 18.850586,53.5527343 19.4433594,53.5527343 C20.3637696,53.5527343 21.2963867,53.3144531 22.1738282,52.8447265 L28.4311524,49.5493163 C30.2324219,48.5854491 31.6235352,46.7216796 32.1523438,44.5605468 L39.2631836,15.168457 C39.3833008,14.6699218 39.1079102,14.1611328 38.6245117,13.9902343 L23.0400391,8.480957 C22.5512696,8.3095703 22.0117188,8.5371093 21.796875,9.008789 L9.2646484,36.4873047 C8.3500976,38.5068359 8.290039,40.8378906 9.1069336,42.7285156 L11.96875,49.237793 C12.6225586,50.7529297 13.7749023,51.8671875 15.2128906,52.3754883 L15.5703735,52.5018921 L7.7606201,75.1133423 L1.3334961,72.8413086 C0.8120117,72.6547852 0.2412109,72.9301758 0.0571289,73.4506836 C-0.1269531,73.9716797 0.1459961,74.5429688 0.6665039,74.7270508 Z M23.2363281,10.671875 L37.1069336,15.5751953 L35.8840332,20.6300659 L20.9842529,15.6099853 L23.2363281,10.671875 Z M13.8022461,48.4389648 L10.9404297,41.9296875 C10.3457031,40.5537109 10.4003906,38.8276367 11.0854492,37.3149414 L20.1498413,17.4395142 L35.4118652,22.5816651 L30.2089843,44.0874024 C29.8134765,45.7031251 28.7963866,47.0859376 27.4936523,47.7827149 L21.2363281,51.0781251 C20.2880859,51.5854493 19.2680664,51.6884767 18.3652343,51.3686524 L15.8793945,50.4897462 C14.9726562,50.1694336 14.2358398,49.4428711 13.8022461,48.4389648 Z" id="Shape"></path>
                        <path d="M25.1772461,32.4316406 C25.652832,32.5996094 26.1445313,32.6831054 26.6342773,32.6831054 C27.28125,32.6831054 27.9252929,32.5371093 28.5263671,32.2475585 C29.5927733,31.7333983 30.3940429,30.830078 30.7827148,29.7045897 C31.5795898,27.3984374 30.3691406,24.8652342 28.0849609,24.057617 C26.9804687,23.6679686 25.7915039,23.73291 24.7358398,24.2412108 C23.6699218,24.755371 22.868164,25.658203 22.4790039,26.7841796 C22.4790039,26.7841796 22.4790039,26.7841796 22.4790039,26.7846679 C21.6831055,29.090332 22.8935547,31.6235352 25.1772461,32.4316406 Z M24.3696289,27.4375 C24.5830078,26.8188477 25.0219727,26.3237305 25.6044922,26.0429688 C26.175293,25.7670899 26.8198242,25.7324219 27.4179688,25.9433594 C28.6704102,26.3857422 29.331543,27.7802735 28.8920899,29.0517578 C28.678711,29.6699219 28.2402344,30.165039 27.6577149,30.446289 C27.0864258,30.7216796 26.4428711,30.7583007 25.8442383,30.5458984 C24.5922852,30.1030273 23.9306641,28.7089844 24.3696289,27.4375 Z" id="Shape"></path>
                        <path d="M18.9511719,44.777832 C19.4550781,44.9560547 19.9760742,45.0444336 20.4956055,45.0444336 C21.1816407,45.0444336 21.8652344,44.8896484 22.5024414,44.5825195 C23.6333008,44.0371093 24.4833984,43.0791015 24.8959961,41.8852539 C25.7412109,39.4384766 24.4570313,36.7514648 22.0336914,35.8945312 C20.8652344,35.480957 19.6025391,35.5507812 18.4824219,36.0898437 C17.3515625,36.6352539 16.5014649,37.5932617 16.0888672,38.7871093 L16.0888672,38.7875976 C15.2446289,41.2338867 16.5283203,43.9208984 18.9511719,44.777832 Z M17.9794922,39.4399414 C18.2167969,38.753418 18.7036133,38.2036133 19.3510742,37.8916016 C19.9863281,37.5844727 20.703125,37.5444336 21.3671875,37.7802735 C22.7583008,38.2719727 23.4931641,39.8203126 23.0053711,41.2319337 C22.7680664,41.9189454 22.28125,42.4687501 21.6337891,42.7807618 C20.9975586,43.0864259 20.2807618,43.1264649 19.6176758,42.8920899 C18.2270508,42.4003906 17.4921875,40.8520508 17.9794922,39.4399414 Z" id="Shape"></path>
                        <path d="M34.5703125,7.9418945 C34.7675781,8.1938476 35.0615234,8.3256836 35.3583984,8.3256836 C35.5742187,8.3256836 35.7910156,8.2563477 35.9741211,8.1132813 C36.4091797,7.7729493 36.4858399,7.1445313 36.1455078,6.7094727 L32.899414,2.5590821 C32.5581054,2.1235352 31.9301757,2.0483399 31.4956054,2.3876954 C31.0605468,2.7280274 30.9838866,3.3564454 31.3242187,3.791504 L34.5703125,7.9418945 Z" id="Shape"></path>
                        <path d="M44.4208984,8.3256836 C44.7177734,8.3256836 45.0117187,8.1938477 45.2089843,7.9418945 L48.4550781,3.7915039 C48.7954101,3.3564453 48.71875,2.7280273 48.2836914,2.3876953 C47.8481445,2.0483398 47.2207031,2.1235351 46.8798828,2.559082 L43.633789,6.7094726 C43.293457,7.1445312 43.3701171,7.7729492 43.8051757,8.1132812 C43.9882812,8.2563477 44.2050781,8.3256836 44.4208984,8.3256836 Z" id="Shape"></path>
                        <path d="M39.8896484,6.7841797 C40.4418945,6.7841797 40.8896484,6.3364258 40.8896484,5.7841797 L40.8896484,1 C40.8896484,0.4477539 40.4418945,0 39.8896484,0 C39.3374023,0 38.8896484,0.4477539 38.8896484,1 L38.8896484,5.7841797 C38.8896484,6.3364258 39.3374023,6.7841797 39.8896484,6.7841797 Z" id="Shape"></path>
                    </g>
                </g>
            </g>
        </g>
    </g>
</svg>

<svg width="80" height="80" viewBox="0 0 80 80" xmlns="http://www.w3.org/2000/svg"><title>noun_Party_2033851</title><g fill="#000" fill-rule="nonzero"><path d="M39.013 45.45l-1.422 2.594a14.393 14.393 0 0 1-5.735 5.725l-2.599 1.419a1 1 0 0 0 0 1.756l2.599 1.418a14.394 14.394 0 0 1 5.735 5.726l1.422 2.594a1 1 0 0 0 1.754 0l1.421-2.594c1.326-2.421 3.31-4.401 5.734-5.725l2.6-1.42a1 1 0 0 0 0-1.755l-2.6-1.418a14.392 14.392 0 0 1-5.734-5.726l-1.421-2.594c-.351-.64-1.404-.64-1.754 0zm.877 2.562l.544.993a16.39 16.39 0 0 0 6.53 6.52l.992.54-.992.542a16.383 16.383 0 0 0-6.53 6.52l-.544.994-.545-.994a16.387 16.387 0 0 0-6.53-6.52l-.992-.541.992-.542a16.39 16.39 0 0 0 6.53-6.519l.545-.993zM27.044 63.713c-.352-.642-1.405-.642-1.756 0l-1.034 1.895a10.217 10.217 0 0 1-4.066 4.075l-1.89 1.036a1 1 0 0 0 0 1.754l1.89 1.037a10.217 10.217 0 0 1 4.066 4.074l1.034 1.895a1 1 0 0 0 1.756 0l1.035-1.895a10.219 10.219 0 0 1 4.065-4.074l1.891-1.037a1 1 0 0 0 0-1.754l-1.891-1.036a10.219 10.219 0 0 1-4.065-4.075l-1.035-1.895zm4.139 7.724l.29.16-.29.159a12.22 12.22 0 0 0-4.86 4.87l-.157.287-.156-.287a12.215 12.215 0 0 0-4.86-4.87l-.292-.16.291-.16a12.215 12.215 0 0 0 4.86-4.87l.157-.287.157.287a12.22 12.22 0 0 0 4.86 4.87zM61.482 70.72l-1.891-1.037a10.217 10.217 0 0 1-4.066-4.075l-1.034-1.895c-.352-.642-1.406-.642-1.756 0L51.7 65.608a10.217 10.217 0 0 1-4.066 4.075l-1.89 1.036a1 1 0 0 0 0 1.754l1.89 1.037a10.217 10.217 0 0 1 4.066 4.074l1.034 1.895a1 1 0 0 0 1.756 0l1.034-1.895a10.217 10.217 0 0 1 4.066-4.074l1.89-1.037a1 1 0 0 0 0-1.754zm-2.852 1.036a12.215 12.215 0 0 0-4.86 4.87l-.157.287-.156-.287a12.215 12.215 0 0 0-4.86-4.87l-.292-.16.291-.16a12.215 12.215 0 0 0 4.86-4.87l.157-.287.157.287a12.215 12.215 0 0 0 4.86 4.87l.29.16-.29.16z"/><path d="M64.43 52.502l.357-.127c1.438-.508 2.59-1.622 3.242-3.131l2.867-6.521c.814-1.885.754-4.216-.162-6.238L58.204 9.009a1 1 0 0 0-1.244-.528l-15.585 5.51a1 1 0 0 0-.638 1.177l7.112 29.395c.527 2.159 1.919 4.022 3.726 4.99l6.245 3.289c.882.471 1.817.71 2.738.71.592 0 1.18-.098 1.743-.298l.243-.085 7.81 22.611-6.442 2.277a1 1 0 0 0 .667 1.886l14.754-5.216a1 1 0 0 0-.666-1.886l-6.428 2.272-7.81-22.611zM42.893 15.575l13.87-4.903 2.285 5.01-14.914 5.024-1.24-5.13zM61.635 51.37c-.906.319-1.924.215-2.877-.294l-6.246-3.29c-1.308-.7-2.325-2.082-2.72-3.695l-5.185-21.433 15.276-5.146 9.03 19.802c.687 1.515.741 3.24.149 4.61l-2.867 6.522c-.43.998-1.168 1.724-2.075 2.045l-2.485.879z"/><path d="M57.521 26.784a4.392 4.392 0 0 0-2.256-2.543 4.326 4.326 0 0 0-3.35-.184c-2.285.807-3.495 3.34-2.698 5.647a4.393 4.393 0 0 0 2.256 2.544 4.354 4.354 0 0 0 3.35.184c2.284-.808 3.494-3.342 2.698-5.648zm-3.364 3.762c-.6.21-1.244.176-1.816-.1a2.405 2.405 0 0 1-1.234-1.395c-.439-1.271.222-2.666 1.475-3.109a2.36 2.36 0 0 1 1.814.1 2.41 2.41 0 0 1 1.235 1.395c.439 1.271-.223 2.666-1.474 3.109zM63.911 38.787a4.661 4.661 0 0 0-2.393-2.697 4.6 4.6 0 0 0-3.552-.195c-2.423.856-3.707 3.543-2.862 5.99a4.661 4.661 0 0 0 2.394 2.698 4.613 4.613 0 0 0 3.551.195c2.423-.857 3.706-3.544 2.862-5.99zm-3.528 4.105a2.609 2.609 0 0 1-2.017-.111 2.672 2.672 0 0 1-1.371-1.55c-.488-1.41.247-2.959 1.637-3.45a2.615 2.615 0 0 1 2.017.111 2.672 2.672 0 0 1 1.372 1.548c.487 1.412-.248 2.96-1.638 3.452zM.667 74.727l14.754 5.216a.997.997 0 0 0 1.276-.61 1 1 0 0 0-.61-1.276l-6.44-2.277 7.81-22.611.241.085c.565.2 1.153.299 1.745.299.92 0 1.853-.239 2.73-.708l6.258-3.296c1.801-.964 3.193-2.827 3.721-4.988l7.111-29.393a1 1 0 0 0-.638-1.178L23.04 8.481a1 1 0 0 0-1.243.528L9.265 36.487c-.915 2.02-.975 4.35-.158 6.242l2.862 6.509c.654 1.515 1.806 2.63 3.244 3.137l.357.127-7.81 22.611-6.427-2.272a1 1 0 0 0-.667 1.886zm22.57-64.055l13.87 4.903-1.223 5.055-14.9-5.02 2.252-4.938zm-9.435 37.767l-2.862-6.51c-.594-1.375-.54-3.101.145-4.614L20.15 17.44l15.262 5.142-5.203 21.505c-.396 1.616-1.413 2.999-2.715 3.696l-6.258 3.295c-.948.507-1.968.61-2.87.29l-2.487-.878c-.906-.32-1.643-1.047-2.077-2.051z"/><path d="M25.177 32.432a4.351 4.351 0 0 0 3.35-.184 4.392 4.392 0 0 0 2.256-2.543c.797-2.307-.414-4.84-2.698-5.647a4.339 4.339 0 0 0-3.35.183 4.395 4.395 0 0 0-2.256 2.543c-.796 2.306.415 4.84 2.698 5.648zm-.807-4.995a2.405 2.405 0 0 1 1.234-1.394 2.347 2.347 0 0 1 1.814-.1c1.252.443 1.914 1.837 1.474 3.109a2.407 2.407 0 0 1-1.234 1.394 2.342 2.342 0 0 1-1.814.1c-1.252-.443-1.913-1.837-1.474-3.108zM18.951 44.778a4.614 4.614 0 0 0 3.551-.195 4.661 4.661 0 0 0 2.394-2.698c.845-2.447-.439-5.134-2.862-5.99a4.6 4.6 0 0 0-3.552.195 4.661 4.661 0 0 0-2.393 2.697c-.844 2.447.44 5.134 2.862 5.99zm-.972-5.338a2.672 2.672 0 0 1 1.372-1.548 2.601 2.601 0 0 1 2.016-.112c1.391.492 2.126 2.04 1.638 3.452a2.672 2.672 0 0 1-1.371 1.549 2.615 2.615 0 0 1-2.016.111c-1.39-.492-2.126-2.04-1.639-3.452zM34.57 7.942a.999.999 0 0 0 1.404.171 1 1 0 0 0 .172-1.404l-3.247-4.15a1 1 0 0 0-1.575 1.233l3.246 4.15zM44.42 8.326c.298 0 .592-.132.789-.384l3.246-4.15a1 1 0 1 0-1.575-1.233l-3.246 4.15a1 1 0 0 0 .787 1.617zM39.89 6.784a1 1 0 0 0 1-1V1a1 1 0 0 0-2 0v4.784a1 1 0 0 0 1 1z"/></g></svg>
